assets/features/global-acquiring/bank.svg

<svg width="80" height="16" viewBox="0 0 80 16" fill="none" xmlns="http://www.w3.org/2000/svg">
<rect width="24" height="16" rx="4" fill="#1434CB"/>
<path d="M14.8638 4.81201C13.4921 4.81201 12.2661 5.52257 12.2661 6.83537C12.2661 8.34089 14.4403 8.44487 14.4403 9.20121C14.4403 9.51967 14.0751 9.80475 13.4514 9.80475C12.5662 9.80475 11.9045 9.40641 11.9045 9.40641L11.6215 10.7312C11.6215 10.7312 12.3836 11.0677 13.3955 11.0677C14.8953 11.0677 16.0755 10.3222 16.0755 8.98697C16.0755 7.3961 13.8923 7.2952 13.8923 6.59321C13.8923 6.3437 14.1921 6.07037 14.814 6.07037C15.5158 6.07037 16.0883 6.36007 16.0883 6.36007L16.3654 5.08059C16.3654 5.08059 15.7424 4.81201 14.8638 4.81201ZM2.31325 4.90859L2.28003 5.10171C2.28003 5.10171 2.85715 5.20726 3.37694 5.41782C4.04619 5.65924 4.09389 5.7998 4.2066 6.23635L5.43484 10.9681H7.08135L9.6179 4.90859H7.97517L6.34529 9.02845L5.68021 5.53625C5.61922 5.13658 5.31025 4.90859 4.93207 4.90859H2.31325ZM10.2785 4.90859L8.98979 10.968H10.5563L11.8404 4.90857H10.2785V4.90859ZM19.0152 4.90859C18.6374 4.90859 18.4373 5.11068 18.2904 5.46383L15.9955 10.968H17.6382L17.956 10.0507H19.9573L20.1506 10.968H21.6L20.3355 4.90859H19.0152ZM19.2288 6.54567L19.7157 8.81947H18.4112L19.2288 6.54567Z" fill="white"/>
<rect x="28" width="24" height="16" rx="4" fill="black"/>
<path d="M37.7191 11.7896C39.8394 11.7896 41.5582 10.066 41.5582 7.93996C41.5582 5.81387 39.8394 4.09033 37.7191 4.09033C35.5988 4.09033 33.88 5.81387 33.88 7.93996C33.88 10.066 35.5988 11.7896 37.7191 11.7896Z" fill="#EB001B"/>
<path d="M42.3562 11.7896C44.4765 11.7896 46.1953 10.066 46.1953 7.93996C46.1953 5.81387 44.4765 4.09033 42.3562 4.09033C40.2359 4.09033 38.5171 5.81387 38.5171 7.93996C38.5171 10.066 40.2359 11.7896 42.3562 11.7896Z" fill="#F79E1B"/>
<path d="M40.0367 4.86572C40.961 5.5681 41.5562 6.68115 41.5562 7.93237C41.5562 9.1836 40.961 10.2986 40.0367 11.0009C39.1123 10.2986 38.5171 9.18551 38.5171 7.93237C38.5171 6.67923 39.1142 5.5681 40.0367 4.86572Z" fill="#FF5F00"/>
<rect x="56" width="24" height="16" rx="4" fill="#016FD0"/>
<path d="M70.199 14.3383V8.86108H76.0056L76.6286 9.67223L77.2723 8.86108H79.9999V10.0154L78.6908 11.5465L79.9999 13.0776V14.3384H77.223L76.6009 13.5098L75.9692 14.3384L70.199 14.3383Z" fill="white"/>
<path d="M68 7.16129L70.4003 1.68408H72.6649L73.4079 3.39196V1.68408H76.223L76.6653 2.91848L77.0942 1.68408H80V7.16133H72.3294L71.9816 6.29793H71.054L70.7087 7.16129H69.0909H68Z" fill="white"/>
<path d="M70.9015 13.64V9.53882H74.2514V10.4562H71.9389V11.1577H74.1973V12.0211H71.9389V12.7496H74.2514V13.64H70.9015ZM74.3814 13.64L76.0124 11.6147L74.3426 9.53882H75.6359L76.6304 10.8221L77.6283 9.53882H78.8711L77.2231 11.5894L78.8572 13.64H77.564L76.5984 12.3769L75.6562 13.64H74.3814Z" fill="#016FD0"/>
<path d="M74.0888 2.38135V6.48252H75.1153V3.4606L76.2066 6.48252H77.1069L78.1951 3.4606V6.48252H79.2217V2.38135H77.6007L76.6731 5.03159L75.7227 2.3874L74.0888 2.38135Z" fill="#016FD0"/>
<path fill-rule="evenodd" clip-rule="evenodd" d="M70.8638 2.38205L69.0977 6.48322H70.2475L70.5734 5.66196H72.4678L72.792 6.48322H73.9672L72.2027 2.38205H70.8638ZM72.0947 4.7716L71.5172 3.33648L70.9381 4.7716H72.0947Z" fill="#016FD0"/>
</svg>

<svg xmlns="http://www.w3.org/2000/svg" width="80" height="16" fill="none" viewBox="0 0 80 16"><rect width="24" height="16" fill="#1434cb" rx="4"/><path fill="#fff" d="M14.864 4.812c-1.372 0-2.598.71-2.598 2.023 0 1.506 2.174 1.61 2.174 2.366 0 .319-.365.604-.989.604-.885 0-1.546-.399-1.546-.399l-.284 1.325s.763.337 1.774.337c1.5 0 2.68-.746 2.68-2.081 0-1.59-2.183-1.692-2.183-2.394 0-.25.3-.523.922-.523.702 0 1.274.29 1.274.29l.277-1.28s-.623-.268-1.501-.268m-12.55.097-.034.193s.577.105 1.097.316c.67.241.717.382.83.818l1.228 4.732H7.08l2.537-6.06H7.975l-1.63 4.12-.665-3.492c-.06-.4-.37-.627-.748-.627zm7.964 0L8.99 10.968h1.566l1.284-6.06zm8.737 0c-.378 0-.578.202-.725.555l-2.294 5.504h1.642l.318-.917h2.001l.194.917H21.6l-1.265-6.06zm.214 1.637.487 2.273H18.41z"/><rect width="24" height="16" x="28" fill="#000" rx="4"/><path fill="#eb001b" d="M37.72 11.79a3.844 3.844 0 0 0 3.838-3.85 3.844 3.844 0 0 0-3.839-3.85 3.844 3.844 0 0 0-3.839 3.85 3.844 3.844 0 0 0 3.84 3.85"/><path fill="#f79e1b" d="M42.356 11.79c2.12 0 3.84-1.724 3.84-3.85a3.844 3.844 0 0 0-3.84-3.85 3.844 3.844 0 0 0-3.839 3.85 3.844 3.844 0 0 0 3.84 3.85"/><path fill="#ff5f00" d="M40.037 4.866a3.84 3.84 0 0 1 1.52 3.066 3.85 3.85 0 0 1-1.52 3.069 3.84 3.84 0 0 1-1.52-3.069c0-1.253.597-2.364 1.52-3.066"/><rect width="24" height="16" x="56" fill="#016fd0" rx="4"/><path fill="#fff" d="M70.199 14.338V8.861h5.807l.623.811.643-.81H80v1.153l-1.31 1.531L80 13.079v1.26h-2.777l-.622-.828-.632.828zM68 7.161l2.4-5.477h2.265l.743 1.708V1.684h2.815l.442 1.234.43-1.234H80v5.477h-7.67l-.348-.863h-.928l-.345.863z"/><path fill="#016fd0" d="M70.902 13.64V9.539h3.35v.917h-2.313v.702h2.258v.863H71.94v.729h2.312v.89zm3.48 0 1.63-2.025-1.67-2.076h1.294l.994 1.283.998-1.283h1.243l-1.648 2.05 1.634 2.051h-1.293l-.966-1.263-.942 1.263zm-.293-11.259v4.102h1.026V3.46l1.092 3.022h.9l1.088-3.022v3.022h1.027V2.38H77.6l-.928 2.65-.95-2.644z"/><path fill="#016fd0" fill-rule="evenodd" d="m70.864 2.382-1.766 4.101h1.15l.325-.821h1.895l.324.821h1.175l-1.764-4.1zm1.23 2.39-.577-1.436-.579 1.436z" clip-rule="evenodd"/></svg>
